icons/CurrencyEuroCircle.svg

<svg width="24" height="24" viewBox="0 0 24 24" fill="none" xmlns="http://www.w3.org/2000/svg">
<path fill-rule="evenodd" clip-rule="evenodd" d="M12,3.99998c-4.55635,0 -8.25,3.69366 -8.25,8.25002c0,4.5563 3.69365,8.25 8.25,8.25c4.5563,0 8.25,-3.6937 8.25,-8.25c0,-4.55636 -3.6937,-8.25002 -8.25,-8.25002zM2.25,12.25c0,-5.38479 4.36522,-9.75002 9.75,-9.75002c5.3848,0 9.75,4.36523 9.75,9.75002c0,5.3848 -4.3652,9.75 -9.75,9.75c-5.38478,0 -9.75,-4.3652 -9.75,-9.75zM12.1976,7.76214c0.677,-0.0545 1.3539,0.07495 1.9678,0.37344c0.3725,0.18114 0.5276,0.62995 0.3465,1.00246c-0.1811,0.37251 -0.6299,0.52766 -1.0024,0.34652c-0.3762,-0.18288 -0.7854,-0.25995 -1.1916,-0.22726c-0.4063,0.03271 -0.8027,0.17474 -1.1527,0.41812c-0.3504,0.24367 -0.6443,0.58218 -0.85,0.98898c-0.0939,0.1856 -0.1677,0.3822 -0.2203,0.5856h1.6551c0.4143,0 0.75,0.3358 0.75,0.75c0,0.4142 -0.3357,0.75 -0.75,0.75h-1.6551c0.0526,0.2034 0.1264,0.3999 0.2203,0.5856c0.2057,0.4068 0.4996,0.7453 0.85,0.9889c0.35,0.2434 0.7464,0.3855 1.1527,0.4182c0.4062,0.0327 0.8154,-0.0444 1.1916,-0.2273c0.3725,-0.1811 0.8213,-0.026 1.0024,0.3465c0.1811,0.3725 0.026,0.8214 -0.3465,1.0025c-0.6139,0.2985 -1.2908,0.4279 -1.9678,0.3734c-0.6769,-0.0545 -1.3262,-0.2906 -1.8887,-0.6817c-0.56211,-0.3909 -1.01848,-0.923 -1.3323,-1.5436c-0.20082,-0.397 -0.33982,-0.8234 -0.41387,-1.2625h-0.26268c-0.41421,0 -0.75,-0.3358 -0.75,-0.75c0,-0.4142 0.33579,-0.75 0.75,-0.75h0.26268c0.07405,-0.4392 0.21305,-0.8655 0.41387,-1.26258c0.31382,-0.62051 0.77019,-1.15267 1.3323,-1.54353c0.5625,-0.39115 1.2118,-0.62726 1.8887,-0.68175z" fill="#002B51"/>
</svg>

<svg width="24" height="24" viewBox="0 0 24 24" fill="none" xmlns="http://www.w3.org/2000/svg">
<path fill-rule="evenodd" clip-rule="evenodd" d="M12 3.99998C7.44365 3.99998 3.75 7.69364 3.75 12.25C3.75 16.8063 7.44365 20.5 12 20.5C16.5563 20.5 20.25 16.8063 20.25 12.25C20.25 7.69364 16.5563 3.99998 12 3.99998ZM2.25 12.25C2.25 6.86521 6.61522 2.49998 12 2.49998C17.3848 2.49998 21.75 6.86521 21.75 12.25C21.75 17.6348 17.3848 22 12 22C6.61522 22 2.25 17.6348 2.25 12.25ZM12.1976 7.76214C12.8746 7.70764 13.5515 7.83709 14.1654 8.13558C14.5379 8.31672 14.693 8.76553 14.5119 9.13804C14.3308 9.51055 13.882 9.6657 13.5095 9.48456C13.1333 9.30168 12.7241 9.22461 12.3179 9.2573C11.9116 9.29001 11.5152 9.43204 11.1652 9.67542C10.8148 9.91909 10.5209 10.2576 10.3152 10.6644C10.2213 10.85 10.1475 11.0466 10.0949 11.25H11.75C12.1643 11.25 12.5 11.5858 12.5 12C12.5 12.4142 12.1643 12.75 11.75 12.75H10.0949C10.1475 12.9534 10.2213 13.1499 10.3152 13.3356C10.5209 13.7424 10.8148 14.0809 11.1652 14.3245C11.5152 14.5679 11.9116 14.71 12.3179 14.7427C12.7241 14.7754 13.1333 14.6983 13.5095 14.5154C13.882 14.3343 14.3308 14.4894 14.5119 14.8619C14.693 15.2344 14.5379 15.6833 14.1654 15.8644C13.5515 16.1629 12.8746 16.2923 12.1976 16.2378C11.5207 16.1833 10.8714 15.9472 10.3089 15.5561C9.74679 15.1652 9.29042 14.6331 8.9766 14.0125C8.77578 13.6155 8.63678 13.1891 8.56273 12.75H8.30005C7.88584 12.75 7.55005 12.4142 7.55005 12C7.55005 11.5858 7.88584 11.25 8.30005 11.25H8.56273C8.63678 10.8108 8.77578 10.3845 8.9766 9.98742C9.29042 9.36691 9.74679 8.83475 10.3089 8.44389C10.8714 8.05274 11.5207 7.81663 12.1976 7.76214Z" fill="#002B51"/>
</svg>
